X: 29
T: Connaughtman's Rambles, The
Z: Jeff Cooper
S: https://thesession.org/tunes/19#setting53458
R: jig
M: 6/8
L: 1/8
K: Dmaj
|:FAA dAF|BAA dAG|FAA dfe|dBB BAG|
FAA dAF|BAA def|gfe dcd|1 BcB BAG:|2 BcB B3||
|:fbb faf|fed ede|fbb afd|fed e3|
fbb faf|fed def|gfe dcd|1 BcB B3:|2 BcB BAG||

